img/broken-anchor_left.svg

<svg width="44px" height="44px" viewBox="0 0 48 48" version="1.1" xmlns="http://www.w3.org/2000/svg" xmlns:xlink="http://www.w3.org/1999/xlink">
    <g stroke="none" stroke-width="1" fill="none" fill-rule="evenodd">
        <g fill="#D7CDD2">
            <path d="M19.7277353,8.47893333 C19.7277353,10.2997333 20.8331038,11.8709333 22.4167667,12.5706667 L22.3696183,15.9584 C22.3696183,15.9584 17.8624241,15.9583999 17.8624241,15.9584004 L17.8624241,18.4122661 C17.8624241,18.4122657 22.3125164,18.4122667 22.3125164,18.4122667 L21.9442348,35.1333333 C21.9379484,35.4917333 21.9479019,39.1061333 17.0696122,36.6085333 C16.9828586,36.5640703 15.7100442,37.3333333 15.7100442,37.3333333 L15.4481086,38.4 C15.4481086,38.4 15.7100442,39.2 15,39.4375558 C15.2550286,39.6324695 15.5099326,39.8145196 15.7640297,39.9849724 C19.4943442,42.4873335 23.0507705,42.4902292 24.2749383,44 C26.026764,41.8394667 32.548438,42.7648 37.527311,35.0373333 C37.9343591,34.9685333 38.5975802,34.8917333 39.0412992,35.3770667 C39.2194154,34.6789333 41.106399,32.2198303 39.0412983,27.6363636 C36.4681805,30.1818182 36.647082,30.1818182 33.2708566,31.1813333 C33.5982762,31.2645333 36.3627451,34.104 31.4718825,36.6085333 C26.5956883,39.1061333 26.6056418,35.4938667 26.5972599,35.1333333 L26.2289783,18.4122667 C26.2289783,18.4122667 30.6403768,18.4122663 30.6403768,18.4122667 C30.6403768,18.412267 30.6403768,15.9584005 30.6403768,15.9584 C30.6403768,15.9583995 26.1739718,15.9584 26.1739718,15.9584 L26.1268234,12.5706667 C27.7104864,11.8709333 28.8179504,10.2997333 28.8179504,8.47893333 C28.8158549,6.00426667 26.7816626,4 24.2749383,4 C21.7661186,4 19.7277353,6.00426667 19.7277353,8.47893333 Z M24.2749383,6.83946667 C25.1629002,6.83946667 25.8832233,7.5728 25.8832233,8.47733333 C25.8832233,9.38133333 25.1629002,10.1146667 24.2749383,10.1146667 C23.3864526,10.1146667 22.6603669,9.38133333 22.6603669,8.47733333 C22.6582714,7.57493333 23.3848809,6.83946667 24.2749383,6.83946667 L24.2749383,6.83946667 Z"></path>
        </g>
    </g>
</svg>

<svg width="44" height="44" viewBox="0 0 48 48" xmlns="http://www.w3.org/2000/svg"><path d="M19.728 8.48c0 1.82 1.105 3.39 2.69 4.09l-.048 3.388h-4.508v2.454h4.45l-.368 16.72c-.006.36.004 3.974-4.874 1.477-.087-.046-1.36.723-1.36.723l-.262 1.067s.262.8-.448 1.038c.255.194.51.377.764.547 3.73 2.502 7.287 2.505 8.51 4.015 1.753-2.16 8.274-1.235 13.253-8.963.407-.068 1.07-.145 1.514.34.18-.698 2.066-3.157 0-7.74-2.572 2.545-2.393 2.545-5.77 3.544.328.085 3.093 2.924-1.798 5.43-4.876 2.496-4.866-1.116-4.875-1.477l-.368-16.72h4.41v-2.455h-4.466l-.047-3.387c1.583-.7 2.69-2.27 2.69-4.09 0-2.476-2.035-4.48-4.542-4.48-2.51 0-4.547 2.004-4.547 4.48zm4.547-1.64c.888 0 1.608.733 1.608 1.637s-.72 1.638-1.608 1.638a1.628 1.628 0 0 1-1.615-1.638 1.627 1.627 0 0 1 1.615-1.638z" fill="#D7CDD2" fill-rule="evenodd"/></svg>
